X:202
T:Ladies God bless them,The. CJF.202
R:air
S:C.J.Fox MS, 1829/33, Beverley,E.Yorks.
B:Kidson Coll.Mitchell Lib.M1805
O:England
A:East Yorkshire
Z:vmp.P J Headford 2000 & 2008
M:6/8
L:1/8
Q:3/8=90
K:F
“Vivace”(c/A/)|\
F>GA f>gf|(e>dc )f2c|(df).d (cA).d|G3- G2(A/G/)|
(F>GA) (f>g)a|fdd d2(e/f/)|gec Ged|c3- c2:||!
c|(f>ef) (g>fe)|f>ed c2B|(A>Bc) fcA|AG2 z2G|A>GF cAc|!
fag hf2g|afd cde|\
gf2 z2f|f2f f2f|Ha3{(a/g/)}(b/a/g/f/e/d/)|(c>dc) cde|gf2z2|]

